data/playwrite-de-la.svg

<svg width="129.49" height="24.514" viewBox="0 0 129.49 24.514" xmlns="http://www.w3.org/2000/svg"><path transform="translate(0 18.62) scale(.014 -.014)" d="m451 347q-17-1-21.5 11.5t0.5 28.5q5 15 14 26t25 11q59 1 119 12t113 32.5 94.5 53.5 65.5 76 24 100q0 40-17.5 69.5t-49 48.5-74.5 29-93 10q-58 0-125-15.5t-136-50-135-94.5q-19-16-32.5-14.5t-26.5 12.5q-10 10-10.5 24.5t15.5 31.5q48 51 107.5 86.5t122 57.5 121 32 105.5 10q81 0 141-17.5t99.5-49.5 59-75 19.5-95q0-72-29-127t-81-96-119-68-142.5-41.5-153.5-18.5zm-317-364q-42 0-74 19.5t-52.5 50-27.5 61.5q-5 19-1 33t25 19q19 6 30-0.5t18-23.5q10-25 22.5-41.5t27.5-24.5 34-8q31 0 53 23.5t43 88.5l181 564q5 14 17 20.5t34 6.5q23 0 33.5-6.5t5.5-23.5l-181-563q-18-54-44-99t-61.5-70.5-82.5-25.5z"/><path transform="translate(12.096 18.62) scale(.014 -.014)" d="m-172-17q-19 0-24.5 11.5t-1.5 26 16 26 29 11.5q25 0 61 16.5t79.5 46.5 91 71 96 89.5 94 102 84 108.5 68 110 46.5 106 17 95q0 14 12.5 21t30 7 30-7 12.5-21q0-46-18.5-101t-52-114.5-78.5-120.5-96.5-120.5-107-113-110.5-99.5-106.5-80-95.5-52.5-76-18.5zm327 2q-39 0-57.5 16t-22.5 41.5 1.5 54.5 13.5 56l188 580q35 108 79 157t106 49q32 0 55.5-17.5t37-48 13.5-70.5q0-19-12.5-28t-30-9-30 9-12.5 28q0 16-3 28t-10.5 19.5-20.5 7.5q-14 0-27.5-12t-28.5-42.5-34-87.5l-197-609q-5-16-6-26.5t3-15.5 12-5q11 0 22.5 7t23 19 23.5 27q7 10 15.5 12t21.5-7q17-10 19-20t-3-21q-9-15-28.5-37.5t-47.5-38.5-63-16z"/><path transform="translate(17.612 18.62) scale(.014 -.014)" d="m159-17q-37 0-64.5 18.5t-42.5 53-15 80.5 13.5 98 41 102.5 67 92 91.5 66.5 117 25q30 0 62-8.5t61-23.5l1 4q6 16 15.5 20t27.5 4q31 0 39.5-9.5t1.5-29.5l-123-369q-5-16-6-26.5t3-15.5 13-5q11 0 22 7t22.5 19 23.5 27q8 10 16.5 12t21.5-7q16-10 18.5-20t-2.5-21q-9-15-28.5-37.5t-47.5-38.5-63-16-53 14-23.5 35.5-2.5 46.5 9 48q1 2 1.5 4.5t1.5 5.5q-40-54-78.5-89t-74-51-66.5-16zm-31 167q0-27 7-46.5t20.5-30 31.5-10.5q34 0 76 32.5t87 95 92 151.5l25 76q-31 13-58 17.5t-51 4.5q-45 0-82-19.5t-64.5-52-46-71.5-28-77.5-9.5-69.5z"/><path transform="translate(26.32 18.62) scale(.014 -.014)" d="m406 16q20 13 40 24.5t38 21 34.5 18.5 30.5 15q16 7 25 0t11.5-20.5-1.5-26.5-15-19q-20-11-41.5-23t-43.5-24.5-44.5-26-45.5-27.5zm-271-455q-36 0-64 14t-43.5 38.5-15.5 55.5q0 34 14.5 65t42 60.5 67 59.5 90.5 61q31 18 62.5 37t62.5 38l55 169q-29-41-58.5-73.5t-61-55.5-63-34-62.5-11q-49 0-76.5 23t-31 67.5 16.5 106.5l100 301q7 20 16.5 26t28.5 6q31 0 39.5-9.5t1.5-29.5l-104-311q-10-29-11.5-52t10.5-36 41-13q32 0 69.5 25t76.5 70 76.5 107 69.5 136l26 81q7 20 16.5 26t28.5 6q31 0 39.5-9.5t1.5-29.5l-211-647q-23-73-48.5-124t-55-83-66-46.5-80.5-14.5zm13 78q24 0 44.5 11.5t39 35 36 59.5 32.5 86l18 56q-17-10-35-21t-36-22q-37-23-65-45t-46-42-26.5-38.5-8.5-35.5q0-14 5.5-23.5t16-15 25.5-5.5z"/><path transform="translate(35.28 18.62) scale(.014 -.014)" d="m198-19q-46 0-72 19t-35.5 51-5.5 71.5 18 80.5l69 210q4 13 0 21.5t-16 8.5q-11 0-23-6.5t-27.5-22-36.5-42.5q-12-13-21.5-16t-26.5 5q-19 11-18 23.5t8 23.5q22 31 45.5 56t52.5 39.5 65 14.5 55-13 25-34 3-46.5-10-48.5l-61-190q-10-32-14-60.5t6.5-46.5 42.5-18q27 0 56 18.5t56.5 50.5 51 72 39.5 83l65 199q5 16 14 24t31 8q33 0 39-9.5t0-28.5l-82-266q-7-20-12.5-45.5t-4-50 13.5-40 42-15.5q34 0 66.5 21t60 56 48 78 32 88.5 11.5 85.5q0 11-0.5 23.5t-2 25.5-3.5 26q-3 18 0.5 30t13.5 18 25 6q19 0 30-11t16-37q3-11 4.5-22.5t2-23.5 0.5-25q0-52-15-109t-43.5-112-68.5-100-89.5-71.5-107.5-26.5q-46 0-74 17.5t-39.5 45.5-12.5 61q-24-38-53-66t-62-43-71-15z"/><path transform="translate(47.712 18.62) scale(.014 -.014)" d="m81-15q-16 0-29.5 7t-7.5 26l128 395q4 13 0 21.5t-16 8.5q-11 0-23-6.5t-27.5-22-36.5-42.5q-12-13-21.5-16t-26.5 5q-19 11-18 23.5t8 23.5q22 31 45.5 56t52.5 39.5 65 14.5q35 0 53-12t24-31 4.5-41.5-5.5-42.5l-16-48q26 43 53 75.5t53 55 49 34 43 11.5q14 0 21-7t6-31q0-25 3-41.5t10-25 19-8.5q22 0 49 13.5t74 44.5q10 7 20.5 2.5t17-15.5 7-23.5-10.5-19.5q-45-36-84-53.5t-80-17.5q-21 0-41.5 8.5t-34 29-14.5 56.5q-23-13-52.5-41.5t-61-70-62.5-95-57-116.5l-32-97q-4-13-14.5-19.5t-33.5-6.5z"/><path transform="translate(55.426 18.62) scale(.014 -.014)" d="m127-15q-59 0-75.5 44.5t10.5 127.5l107 326q7 20 16.5 26t28.5 6q31 0 39.5-9.5t1.5-29.5l-120-368q-8-23-5-35.5t17-12.5q11 0 21 6.5t21 18.5 24 28q8 10 16.5 12t21.5-7q16-10 18.5-20t-3.5-21q-18-29-39.5-50t-46.5-31.5-53-10.5zm149 684q-20 0-34 13t-14 38q0 27 17.5 51t54.5 24q21 0 35-12.5t14-38.5q0-27-17.5-51t-55.5-24z"/><path transform="translate(59.626 18.62) scale(.014 -.014)" d="m158-15q-44 0-67 20.5t-25 59 15 91.5l86 264h-77q-11 0-15 10t1 30q6 20 16 30t21 10h80l65 198q6 20 15.5 26t29.5 6q31 0 39.5-9.5t1.5-29.5l-63-191h126q11 0 15.5-9.5t-1.5-30.5q-5-19-15-29.5t-21-10.5h-130l-97-294q-11-34-6-50t24-16q24 0 50 18.5t51 50.5q8 9 17.5 11t24.5-8q15-9 17-18.5t-3-18.5q-11-20-35.5-46t-59-45-80.5-19z"/><path transform="translate(65.058 18.62) scale(.014 -.014)" d="m237-17q-36 0-66 11.5t-53 32-38.5 48.5-24 61.5-8.5 70.5 8.5 79.5 26.5 84 46 75 66.5 53.5 89.5 20q33 0 58.5-13.5t40-38 14.5-57.5q0-49-28-100t-74.5-98.5-102.5-87.5q-56-42-118-73.5t-120-49.5-104-18q-14 0-21 11.5t-5 26 13 26 32 11.5q36 0 84 16.5t100 45.5 99 64q42 31 77 66t56.5 70 21.5 67q0 25-10.5 38.5t-33.5 13.5q-31 0-54.5-23.5t-40-59-24.5-75-8-71.5q0-31 8-58t23-47 37.5-31 50.5-11q29 0 57 12t54 32.5 49 44.5q13 14 28 10.5t25-14.5q11-12 12.5-24.5t-10.5-26.5q-36-43-75-68t-78.5-35.5-79.5-10.5z"/><path transform="translate(75.474 18.62) scale(.014 -.014)" d="m164-17q-35 0-64.5 15t-47.5 41-18 59q0 30 14.5 55t42 40.5 67.5 15.5q42 0 80-10t73.5-26 70.5-33.5 70-33.5 71-26 75-10q46 0 91.5 18t87.5 50 77.5 75.5 62 95.5 41.5 108.5 15 115.5q0 77-24.5 137t-70.5 100-109 60.5-141 20.5q-51 0-95.5-6.5t-82-19.5-68.5-32.5-55.5-45.5-44.5-60q-9-16-21-17.5t-30 6.5q-15 8-19 20t3 25q20 42 50.5 75.5t69.5 59.5 86 43.5 102 26.5 117 9q94 0 172-26.5t134.5-77 87.5-124 31-169.5q0-71-18-139t-50-130-76-113-96.5-88.5-111.5-58.5-120-21q-52 0-100 14t-92.5 35-85 42.5-78 35.5-70.5 14q-22 0-31.5-9t-9.5-24q0-18 15-25.5t32-7.5q28 0 45.5 12t30.5 39.5 28 74.5l177 550q5 14 17 20.5t34 6.5q24 0 34-7.5t5-22.5l-181-557q-23-72-50.5-115.5t-63-62-85.5-18.5z"/><path transform="translate(90.314 18.62) scale(.014 -.014)" d="m319-19q-78 0-134 26t-86 73.5-30 111.5q0 51 20 99t56 88.5 84.5 69 105.5 39.5q-36 13-60.5 36.5t-36.5 55-12 66.5q0 50 15 94t43 80 66.5 62 86.5 39.5 102 13.5q57 0 106.5-15.5t88-42.5 60.5-62q11-16 9-29t-16-22q-14-12-29-11.5t-30 15.5q-24 26-55.5 44t-70 27-83.5 9q-44 0-81.5-15.5t-64.5-42.5-41.5-63.5-14.5-78.5q0-38 18-66t53.5-43.5 86.5-15.5h119q17 0 20-9t-4-31-16-31-23-9h-122q-59 0-111-19.5t-91-53-61.5-77-22.5-91.5q0-44 21.5-73.5t61.5-44.5 95-15q51 0 97 17t88 50.5 78 80.5q15 20 29.5 20.5t30.5-14.5q14-11 13-24.5t-15-31.5q-48-62-101-103t-113-62-129-21z"/><path transform="translate(104.68 18.62) scale(.014 -.014)" d="m81-21q-36 0-63 12t-41.5 34-14.5 52q0 37 18 66t49.5 45.5 73.5 16.5q36 0 69-9.5t65-24.5 64-31.5 64-32 65.5-24.5 68.5-9q49 0 84.5 17.5t62 51 46.5 80.5q8 18 20.5 24t33.5-3q18-7 21.5-21t-5.5-33q-30-64-66.5-109t-86-68-117.5-23q-49 0-94.5 14t-87 34-79 40.5-71.5 34.5-63 14q-23 0-35.5-10.5t-12.5-29.5q0-13 10-23t26-10q30 0 63.5 29t54.5 93l172 531q19 58 44 101t57.5 71 72.5 42 89 14q48 0 84-20t61-58.5 39-93.5q4-16-3-26.5t-25-16.5q-17-5-28 0.5t-17 20.5q-13 39-30 63t-39 35.5-52 11.5q-31 0-56.5-9t-46.5-28.5-37-48.5-29-68l-169-523q-23-69-55-112.5t-71-63-83-19.5z"/><path transform="translate(115.98 18.62) scale(.014 -.014)" d="m135-17q-32 0-58 10.5t-45 24-28 23.5q-11 11-9.5 23.5t14.5 27.5q13 14 24 15.5t21-7.5q19-18 40.5-27t43.5-9q18 0 38.5 6t45 24.5 56 55 73.5 96.5 97.5 150 126 214.5 159.5 290.5q10 18 24.5 26t36.5 8q29 0 43.5-9.5t12.5-32.5q-13-104-23.5-210.5t-17.5-215.5-8.5-221 1.5-227q1-16-9-24.5t-33-10.5q-20-2-30 4.5t-12 22.5q-5 100-4 197t6 192.5 13.5 190 19.5 187.5q-85-158-153.5-277t-123.5-204-98.5-142-78-91.5-63.5-52-54-23-48-5.5zm585 50q-5 76-24 131.5t-48 93-66 60-78 31.5-82 9q-28 0-49.5-5t-37.5-15.5-24.5-24.5-8.5-32q0-28 22-46.5t60.5-28 90.5-9.5q61 0 112 9t99 26 101.5 41.5 118.5 55.5q13 6 24 1.5t18-20.5q10-17 7-30.5t-19-21.5q-72-34-133.5-59.5t-117-43.5-110-26.5-115.5-8.5q-72 0-128 18.5t-87.5 53.5-31.5 85q0 35 16.5 63.5t46 50 69 33.5 85.5 12q48 0 96.5-12t92.5-40 79-74 56.5-112.5 24.5-157.5z"/></svg>

<?xml version="1.0" encoding="utf-8" ?>
<svg baseProfile="tiny" height="100%" version="1.2" width="100%" xmlns="http://www.w3.org/2000/svg" xmlns:ev="http://www.w3.org/2001/xml-events" xmlns:xlink="http://www.w3.org/1999/xlink"><defs /><g><path d="M451 347Q434 346 429.5 358.5Q425 371 430 387Q435 402 444.0 413.0Q453 424 469 424Q528 425 588.0 436.0Q648 447 701.0 468.5Q754 490 795.5 522.0Q837 554 861.0 598.0Q885 642 885 698Q885 738 867.5 767.5Q850 797 818.5 816.0Q787 835 744.0 845.0Q701 855 651 855Q593 855 526.0 839.5Q459 824 390.0 789.5Q321 755 255 695Q236 679 222.5 680.5Q209 682 196 693Q186 703 185.5 717.5Q185 732 201 749Q249 800 308.5 835.5Q368 871 430.5 893.0Q493 915 551.5 925.0Q610 935 657 935Q738 935 798.0 917.5Q858 900 897.5 868.0Q937 836 956.5 793.0Q976 750 976 698Q976 626 947.0 571.0Q918 516 866.0 475.0Q814 434 747.0 407.0Q680 380 604.5 365.5Q529 351 451 347ZM134 -17Q92 -17 60.0 2.5Q28 22 7.5 52.5Q-13 83 -20 114Q-25 133 -21.0 147.0Q-17 161 4 166Q23 172 34.0 165.5Q45 159 52 142Q62 117 74.5 100.5Q87 84 102.0 76.0Q117 68 136 68Q167 68 189.0 91.5Q211 115 232 180L413 744Q418 758 430.0 764.5Q442 771 464 771Q487 771 497.5 764.5Q508 758 503 741L322 178Q304 124 278.0 79.0Q252 34 216.5 8.5Q181 -17 134 -17Z" transform="translate(0.0, 72) scale(0.072, -0.072)" /><path d="M-172 -17Q-191 -17 -196.5 -5.5Q-202 6 -198.0 20.5Q-194 35 -182.0 46.5Q-170 58 -153 58Q-128 58 -92.0 74.5Q-56 91 -12.5 121.0Q31 151 78.5 192.0Q126 233 174.5 281.5Q223 330 268.5 383.5Q314 437 352.5 492.0Q391 547 420.5 602.0Q450 657 467.0 708.0Q484 759 484 803Q484 817 496.5 824.0Q509 831 526.5 831.0Q544 831 556.5 824.0Q569 817 569 803Q569 757 550.5 702.0Q532 647 498.5 587.5Q465 528 420.0 467.0Q375 406 323.5 346.5Q272 287 216.5 233.5Q161 180 106.0 134.0Q51 88 -0.5 54.0Q-52 20 -96.0 1.5Q-140 -17 -172 -17ZM155 -15Q116 -15 97.5 1.0Q79 17 75.0 42.5Q71 68 76.5 97.0Q82 126 90 153L278 733Q313 841 357.0 890.0Q401 939 463 939Q495 939 518.5 921.5Q542 904 555.5 873.5Q569 843 569 803Q569 784 556.5 775.0Q544 766 526.5 766.0Q509 766 496.5 775.0Q484 784 484 803Q484 819 481.0 831.0Q478 843 470.5 850.5Q463 858 450 858Q436 858 422.5 846.0Q409 834 394.0 803.5Q379 773 360 716L163 107Q158 91 157.0 80.5Q156 70 160.0 65.0Q164 60 172 60Q183 60 194.5 67.0Q206 74 217.5 86.0Q229 98 241 113Q248 123 256.5 125.0Q265 127 278 118Q295 108 297.0 98.0Q299 88 294 77Q285 62 265.5 39.5Q246 17 218.0 1.0Q190 -15 155 -15Z" transform="translate(62.208, 72) scale(0.072, -0.072)" /><path d="M159 -17Q122 -17 94.5 1.5Q67 20 52.0 54.5Q37 89 37 135Q37 181 50.5 233.0Q64 285 91.5 335.5Q119 386 158.5 427.5Q198 469 250.0 494.0Q302 519 367 519Q397 519 429.0 510.5Q461 502 490 487L491 491Q497 507 506.5 511.0Q516 515 534 515Q565 515 573.5 505.5Q582 496 575 476L452 107Q447 91 446.0 80.5Q445 70 449.0 65.0Q453 60 462 60Q473 60 484.0 67.0Q495 74 506.5 86.0Q518 98 530 113Q538 123 546.5 125.0Q555 127 568 118Q584 108 586.5 98.0Q589 88 584 77Q575 62 555.5 39.5Q536 17 508.0 1.0Q480 -15 445 -15Q410 -15 392.0 -1.0Q374 13 368.5 34.5Q363 56 366.0 81.0Q369 106 375 129Q376 131 376.5 133.5Q377 136 378 139Q338 85 299.5 50.0Q261 15 225.5 -1.0Q190 -17 159 -17ZM128 150Q128 123 135.0 103.5Q142 84 155.5 73.5Q169 63 187 63Q221 63 263.0 95.5Q305 128 350.0 190.5Q395 253 442 342L467 418Q436 431 409.0 435.5Q382 440 358 440Q313 440 276.0 420.5Q239 401 211.5 368.5Q184 336 165.5 297.0Q147 258 137.5 219.5Q128 181 128 150Z" transform="translate(90.576, 72) scale(0.072, -0.072)" /><path d="M406 16Q426 29 446.0 40.5Q466 52 484.0 61.5Q502 71 518.5 80.0Q535 89 549 95Q565 102 574.0 95.0Q583 88 585.5 74.5Q588 61 584.0 48.0Q580 35 569 29Q549 18 527.5 6.0Q506 -6 484.0 -18.5Q462 -31 439.5 -44.5Q417 -58 394 -72ZM135 -439Q99 -439 71.0 -425.0Q43 -411 27.5 -386.5Q12 -362 12 -331Q12 -297 26.5 -266.0Q41 -235 68.5 -205.5Q96 -176 135.5 -146.0Q175 -116 226 -85Q257 -67 288.5 -48.0Q320 -29 351 -10L406 159Q377 118 347.5 85.5Q318 53 286.5 30.0Q255 7 223.5 -4.0Q192 -15 161 -15Q112 -15 84.5 8.0Q57 31 53.5 75.5Q50 120 70 182L170 483Q177 503 186.5 509.0Q196 515 215 515Q246 515 254.5 505.5Q263 496 256 476L152 165Q142 136 140.5 113.0Q139 90 151.0 77.0Q163 64 192 64Q224 64 261.5 89.0Q299 114 338.0 159.0Q377 204 414.5 266.0Q452 328 484 402L510 483Q517 503 526.5 509.0Q536 515 555 515Q586 515 594.5 505.5Q603 496 596 476L385 -171Q362 -244 336.5 -295.0Q311 -346 281.5 -378.0Q252 -410 215.5 -424.5Q179 -439 135 -439ZM148 -361Q172 -361 192.5 -349.5Q213 -338 231.5 -314.5Q250 -291 267.5 -255.0Q285 -219 300 -169L318 -113Q301 -123 283.0 -134.0Q265 -145 247 -156Q210 -179 182.0 -201.0Q154 -223 136.0 -243.0Q118 -263 109.5 -281.5Q101 -300 101 -317Q101 -331 106.5 -340.5Q112 -350 122.5 -355.5Q133 -361 148 -361Z" transform="translate(135.35999999999999, 72) scale(0.072, -0.072)" /><path d="M198 -19Q152 -19 126.0 0.0Q100 19 90.5 51.0Q81 83 85.0 122.5Q89 162 103 203L172 413Q176 426 172.0 434.5Q168 443 156 443Q145 443 133.0 436.5Q121 430 105.5 414.5Q90 399 69 372Q57 359 47.5 356.0Q38 353 21 361Q2 372 3.0 384.5Q4 397 11 408Q33 439 56.5 464.0Q80 489 109.0 503.5Q138 518 174 518Q210 518 229.0 505.0Q248 492 254.0 471.0Q260 450 257.0 424.5Q254 399 247 376L186 186Q176 154 172.0 125.5Q168 97 178.5 79.0Q189 61 221 61Q248 61 277.0 79.5Q306 98 333.5 130.0Q361 162 384.5 202.0Q408 242 424 285L489 484Q494 500 503.0 508.0Q512 516 534 516Q567 516 573.0 506.5Q579 497 573 478L491 212Q484 192 478.5 166.5Q473 141 474.5 116.5Q476 92 488.0 76.5Q500 61 530 61Q564 61 596.5 82.0Q629 103 656.5 138.0Q684 173 704.5 216.0Q725 259 736.5 304.5Q748 350 748 390Q748 401 747.5 413.5Q747 426 745.5 439.0Q744 452 742 465Q739 483 742.5 495.0Q746 507 756.0 513.0Q766 519 781 519Q800 519 811.0 508.0Q822 497 827 471Q830 460 831.5 448.5Q833 437 833.5 425.0Q834 413 834 400Q834 348 819.0 291.0Q804 234 775.5 179.0Q747 124 707.0 79.0Q667 34 617.5 7.5Q568 -19 510 -19Q464 -19 436.0 -1.5Q408 16 396.5 44.0Q385 72 384 105Q360 67 331.0 39.0Q302 11 269.0 -4.0Q236 -19 198 -19Z" transform="translate(181.44, 72) scale(0.072, -0.072)" /><path d="M81 -15Q65 -15 51.5 -8.0Q38 -1 44 18L172 413Q176 426 172.0 434.5Q168 443 156 443Q145 443 133.0 436.5Q121 430 105.5 414.5Q90 399 69 372Q57 359 47.5 356.0Q38 353 21 361Q2 372 3.0 384.5Q4 397 11 408Q33 439 56.5 464.0Q80 489 109.0 503.5Q138 518 174 518Q209 518 227.0 506.0Q245 494 251.0 475.0Q257 456 255.5 433.5Q254 411 250 391L234 343Q260 386 287.0 418.5Q314 451 340.0 473.5Q366 496 389.0 507.5Q412 519 432 519Q446 519 453.0 512.0Q460 505 459 481Q459 456 462.0 439.5Q465 423 472.0 414.5Q479 406 491 406Q513 406 540.0 419.5Q567 433 614 464Q624 471 634.5 466.5Q645 462 651.5 451.0Q658 440 658.5 427.5Q659 415 648 408Q603 372 564.0 354.5Q525 337 484 337Q463 337 442.5 345.5Q422 354 408.5 374.5Q395 395 394 431Q371 418 341.5 389.5Q312 361 280.5 319.5Q249 278 218.0 224.5Q187 171 161 108L129 11Q125 -2 114.5 -8.5Q104 -15 81 -15Z" transform="translate(245.37599999999998, 72) scale(0.072, -0.072)" /><path d="M127 -15Q68 -15 51.5 29.5Q35 74 62 157L169 483Q176 503 185.5 509.0Q195 515 214 515Q245 515 253.5 505.5Q262 496 255 476L135 108Q127 85 130.0 72.5Q133 60 147 60Q158 60 168.0 66.5Q178 73 189.0 85.0Q200 97 213 113Q221 123 229.5 125.0Q238 127 251 118Q267 108 269.5 98.0Q272 88 266 77Q248 48 226.5 27.0Q205 6 180.0 -4.5Q155 -15 127 -15ZM276 669Q256 669 242.0 682.0Q228 695 228 720Q228 747 245.5 771.0Q263 795 300 795Q321 795 335.0 782.5Q349 770 349 744Q349 717 331.5 693.0Q314 669 276 669Z" transform="translate(285.048, 72) scale(0.072, -0.072)" /><path d="M158 -15Q114 -15 91.0 5.5Q68 26 66.0 64.5Q64 103 81 156L167 420H90Q79 420 75.0 430.0Q71 440 76 460Q82 480 92.0 490.0Q102 500 113 500H193L258 698Q264 718 273.5 724.0Q283 730 303 730Q334 730 342.5 720.5Q351 711 344 691L281 500H407Q418 500 422.5 490.5Q427 481 421 460Q416 441 406.0 430.5Q396 420 385 420H255L158 126Q147 92 152.0 76.0Q157 60 176 60Q200 60 226.0 78.5Q252 97 277 129Q285 138 294.5 140.0Q304 142 319 132Q334 123 336.0 113.5Q338 104 333 95Q322 75 297.5 49.0Q273 23 238.5 4.0Q204 -15 158 -15Z" transform="translate(306.648, 72) scale(0.072, -0.072)" /><path d="M237 -17Q201 -17 171.0 -5.5Q141 6 118.0 26.5Q95 47 79.5 75.0Q64 103 55.5 136.5Q47 170 47 207Q47 244 55.5 286.5Q64 329 82.0 370.5Q100 412 128.0 445.5Q156 479 194.5 499.0Q233 519 284 519Q317 519 342.5 505.5Q368 492 382.5 467.5Q397 443 397 410Q397 361 369.0 310.0Q341 259 294.5 211.5Q248 164 192 124Q136 82 74.0 50.5Q12 19 -46.0 1.0Q-104 -17 -150 -17Q-164 -17 -171.0 -5.5Q-178 6 -176.0 20.5Q-174 35 -163.0 46.5Q-152 58 -131 58Q-95 58 -47.0 74.5Q1 91 53.0 120.0Q105 149 152 184Q194 215 229.0 250.0Q264 285 285.5 320.0Q307 355 307 387Q307 412 296.5 425.5Q286 439 263 439Q232 439 208.5 415.5Q185 392 168.5 356.5Q152 321 144.0 281.5Q136 242 136 210Q136 179 144.0 152.0Q152 125 167.0 105.0Q182 85 204.5 74.0Q227 63 255 63Q284 63 312.0 75.0Q340 87 366.0 107.5Q392 128 415 152Q428 166 443.0 162.5Q458 159 468 148Q479 136 480.5 123.5Q482 111 470 97Q434 54 395.0 29.0Q356 4 316.5 -6.5Q277 -17 237 -17Z" transform="translate(334.584, 72) scale(0.072, -0.072)" /><path d="M164 -17Q129 -17 99.5 -2.0Q70 13 52.0 39.0Q34 65 34 98Q34 128 48.5 153.0Q63 178 90.5 193.5Q118 209 158 209Q200 209 238.0 199.0Q276 189 311.5 173.0Q347 157 382.0 139.5Q417 122 452.0 106.0Q487 90 523.0 80.0Q559 70 598 70Q644 70 689.5 88.0Q735 106 777.0 138.0Q819 170 854.5 213.5Q890 257 916.5 309.0Q943 361 958.0 417.5Q973 474 973 533Q973 610 948.5 670.0Q924 730 878.0 770.0Q832 810 769.0 830.5Q706 851 628 851Q577 851 532.5 844.5Q488 838 450.5 825.0Q413 812 382.0 792.5Q351 773 326.5 747.0Q302 721 282 687Q273 671 261.0 669.5Q249 668 231 676Q216 684 212.0 696.0Q208 708 215 721Q235 763 265.5 796.5Q296 830 335.0 856.0Q374 882 421.0 899.5Q468 917 523.0 926.0Q578 935 640 935Q734 935 812.0 908.5Q890 882 946.5 831.5Q1003 781 1034.0 707.5Q1065 634 1065 538Q1065 467 1047.0 399.0Q1029 331 997.0 269.0Q965 207 921.0 156.0Q877 105 824.5 67.5Q772 30 713.0 9.0Q654 -12 593 -12Q541 -12 493.0 2.0Q445 16 400.5 37.0Q356 58 315.5 79.5Q275 101 237.5 115.0Q200 129 167 129Q145 129 135.5 120.0Q126 111 126 96Q126 78 141.0 70.5Q156 63 173 63Q201 63 218.5 75.0Q236 87 249.0 114.5Q262 142 277 189L454 739Q459 753 471.0 759.5Q483 766 505 766Q529 766 539.0 758.5Q549 751 544 736L363 179Q340 107 312.5 63.5Q285 20 249.5 1.5Q214 -17 164 -17Z" transform="translate(388.15200000000004, 72) scale(0.072, -0.072)" /><path d="M319 -19Q241 -19 185.0 7.0Q129 33 99.0 80.5Q69 128 69 192Q69 243 89.0 291.0Q109 339 145.0 379.5Q181 420 229.5 448.5Q278 477 335 488Q299 501 274.5 524.5Q250 548 238.0 579.5Q226 611 226 646Q226 696 241.0 740.0Q256 784 284.0 820.0Q312 856 350.5 882.0Q389 908 437.0 921.5Q485 935 539 935Q596 935 645.5 919.5Q695 904 733.5 877.0Q772 850 794 815Q805 799 803.0 786.0Q801 773 787 764Q773 752 758.0 752.5Q743 753 728 768Q704 794 672.5 812.0Q641 830 602.5 839.0Q564 848 519 848Q475 848 437.5 832.5Q400 817 373.0 790.0Q346 763 331.5 726.5Q317 690 317 648Q317 610 335.0 582.0Q353 554 388.5 538.5Q424 523 475 523H594Q611 523 614.0 514.0Q617 505 610 483Q603 461 594.0 452.0Q585 443 571 443H449Q390 443 338.0 423.5Q286 404 247.0 370.5Q208 337 185.5 293.5Q163 250 163 202Q163 158 184.5 128.5Q206 99 246.0 84.0Q286 69 341 69Q392 69 438.0 86.0Q484 103 526.0 136.5Q568 170 604 217Q619 237 633.5 237.5Q648 238 664 223Q678 212 677.0 198.5Q676 185 662 167Q614 105 561.0 64.0Q508 23 448.0 2.0Q388 -19 319 -19Z" transform="translate(464.47200000000004, 72) scale(0.072, -0.072)" /><path d="M81 -21Q45 -21 18.0 -9.0Q-9 3 -23.5 25.0Q-38 47 -38 77Q-38 114 -20.0 143.0Q-2 172 29.5 188.5Q61 205 103 205Q139 205 172.0 195.5Q205 186 237.0 171.0Q269 156 301.0 139.5Q333 123 365.0 107.5Q397 92 430.5 83.0Q464 74 499 74Q548 74 583.5 91.5Q619 109 645.5 142.5Q672 176 692 223Q700 241 712.5 247.0Q725 253 746 244Q764 237 767.5 223.0Q771 209 762 190Q732 126 695.5 81.0Q659 36 609.5 13.0Q560 -10 492 -10Q443 -10 397.5 4.0Q352 18 310.5 38.0Q269 58 231.5 78.5Q194 99 160.0 113.0Q126 127 97 127Q74 127 61.5 116.5Q49 106 49 87Q49 74 59.0 64.0Q69 54 85 54Q115 54 148.5 83.0Q182 112 203 176L375 707Q394 765 419.0 808.0Q444 851 476.5 879.0Q509 907 549.0 921.0Q589 935 638 935Q686 935 722.0 915.0Q758 895 783.0 856.5Q808 818 822 763Q826 747 819.0 736.5Q812 726 794 720Q777 715 766.0 720.5Q755 726 749 741Q736 780 719.0 804.0Q702 828 680.0 839.5Q658 851 628 851Q597 851 571.5 842.0Q546 833 525.0 813.5Q504 794 488.0 765.0Q472 736 459 697L290 174Q267 105 235.0 61.5Q203 18 164.0 -1.5Q125 -21 81 -21Z" transform="translate(538.344, 72) scale(0.072, -0.072)" /><path d="M135 -17Q103 -17 77.0 -6.5Q51 4 32.0 17.5Q13 31 4 41Q-7 52 -5.5 64.5Q-4 77 9 92Q22 106 33.0 107.5Q44 109 54 100Q73 82 94.5 73.0Q116 64 138 64Q156 64 176.5 70.0Q197 76 221.5 94.5Q246 113 277.5 149.5Q309 186 351.0 246.0Q393 306 448.5 396.0Q504 486 574.5 610.5Q645 735 734 901Q744 919 758.5 927.0Q773 935 795 935Q824 935 838.5 925.5Q853 916 851 893Q838 789 827.5 682.5Q817 576 810.0 467.0Q803 358 801.5 246.0Q800 134 803 19Q804 3 794.0 -5.5Q784 -14 761 -16Q741 -18 731.0 -11.5Q721 -5 719 11Q714 111 715.0 208.0Q716 305 721.0 400.5Q726 496 734.5 590.5Q743 685 754 778Q669 620 600.5 501.0Q532 382 477.0 297.0Q422 212 378.5 155.0Q335 98 300.5 63.5Q266 29 237.0 11.5Q208 -6 183.0 -11.5Q158 -17 135 -17ZM720 33Q715 109 696.0 164.5Q677 220 648.0 257.5Q619 295 582.0 317.5Q545 340 504.0 349.0Q463 358 422 358Q394 358 372.5 353.0Q351 348 335.0 337.5Q319 327 310.5 313.0Q302 299 302 281Q302 253 324.0 234.5Q346 216 384.5 206.5Q423 197 475 197Q536 197 587.0 206.0Q638 215 686.0 232.0Q734 249 787.5 273.5Q841 298 906 329Q919 335 930.0 330.5Q941 326 948 310Q958 293 955.0 279.5Q952 266 936 258Q864 224 802.5 198.5Q741 173 685.5 155.0Q630 137 575.5 128.5Q521 120 460 120Q388 120 332.0 138.5Q276 157 244.5 192.0Q213 227 213 277Q213 312 229.5 340.5Q246 369 275.5 390.5Q305 412 344.5 424.0Q384 436 430 436Q478 436 526.5 424.0Q575 412 619.0 384.0Q663 356 698.0 310.0Q733 264 754.5 197.5Q776 131 779 40Z" transform="translate(596.4480000000001, 72) scale(0.072, -0.072)" /></g></svg>
